!!!COM:	Bach, Johann Sebastian
!!!CDT:	1685/02/21/-1750/07/28/
!!!OTL@@DE:	Nun lob, mein Seel, den Herren
!!!SCT:	BWV 17/7
!!!PC#:	7
!!!AGN:	chorale
**kern	**kern	**kern	**kern
*ICvox	*ICvox	*ICvox	*ICvox
*Ibass	*Itenor	*Ialto	*Isoprn
*I"Bass	*I"Tenor	*I"Alto	*I"Soprano
*>[A,A,B]	*>[A,A,B]	*>[A,A,B]	*>[A,A,B]
*>norep[A,B]	*>norep[A,B]	*>norep[A,B]	*>norep[A,B]
*>A	*>A	*>A	*>A
*clefF4	*clefGv2	*clefG2	*clefG2
*k[f#c#g#]	*k[f#c#g#]	*k[f#c#g#]	*k[f#c#g#]
*A:	*A:	*A:	*A:
*M3/4	*M3/4	*M3/4	*M3/4
*MM100	*MM100	*MM100	*MM100
4A	4c#	4e	4a
=1	=1	=1	=1
2F#	2c#	2f#	2a
4C#	4c#	4e	4g#
=2	=2	=2	=2
2D	2A	4d	2f#
.	.	4c#	.
4D	4G#	4B	4e
=3	=3	=3	=3
4C#	2A	4e	4a
4D	.	4f#	2b
4E	4G#	4e	.
=4	=4	=4	=4
2AA;	2A;	2e;	2cc#;
4A	4c#	8eL	4cc#
.	.	8f#J	.
=5	=5	=5	=5
2E#	2c#	2g#	4cc#
.	.	.	4b
4C#	4B	4e#	4cc#
=6	=6	=6	=6
4F#	2A	2f#	2cc#
4EnX	.	.	.
4D	4e	4g#	4b
=7	=7	=7	=7
4C#	4e	2a	4a
4D	4f#	.	2b
4E	4e	4g#	.
=8	=8	=8	=8
2AA;	2c#;	2e;	2a;
=:|!	=:|!	=:|!	=:|!
*>B	*>B	*>B	*>B
4AA	4c#	4e	4a
=9	=9	=9	=9
2D	2d	4f#	4a
.	.	4g#	4b
4A	4e	4a	4cc#
=10	=10	=10	=10
4G#	4e#	4b	2b
4F#	4f#	4a	.
4E#X	4g#	4g#	4cc#
=11	=11	=11	=11
4F#	4c#	2f#	4a
4BB	4d	.	2g#
4C#	4c#	4e#	.
=12	=12	=12	=12
2FF#;	2A;	2c#;	2f#;
4D#	4A	4f#	4b
=13	=13	=13	=13
2E	4G#	2e	4b
.	4A	.	4a
4DnX	4B	4e	4g#
=14	=14	=14	=14
4C#	2c#	2e	4a
4AA	.	.	2f#
4BB	8BL	4d#	.
.	8AJ	.	.
=15	=15	=15	=15
2E;	2G#;	2B;	2e;
4C#	4G#	4c#	4e
=16	=16	=16	=16
4F#	2A	2c#	2a
4E	.	.	.
4F#	4d	4f#	4a
=17	=17	=17	=17
4G#	2B	4e	2b
4F#	.	4f#	.
4E	4e	4g#	4b
=18	=18	=18	=18
2A	2.e	2a	4.cc#
.	.	.	8b
4AA	.	4g	4cc#
=19	=19	=19	=19
2D;	2d;	2f#;	2a;
4C#	4e	4a	4a
=20	=20	=20	=20
4BB	2f#	2b	2dd
8BL	.	.	.
8A	.	.	.
8G	4B	8bL	4dd
8F#J	.	8aJ	.
=21	=21	=21	=21
8EL	4e	8gL	4cc#
8F#J	.	8aJ	.
4G	8dL	4b	4b
.	8c#J	.	.
4F#	8BL	4e	4cc#
.	8A#J	.	.
=22	=22	=22	=22
2BB;	2B;	2d#;	2b;
4E	4G#X	4e	4b
=23	=23	=23	=23
4A	2A	2e	2cc#
4G#	.	.	.
4F#	4A	4f#	4cc#
=24	=24	=24	=24
4B	2B	2f#	2dd
4A	.	.	.
4G	4B	4g	4dd
=25	=25	=25	=25
2.C#	4B	4g	2.ee
.	4A	4f#	.
.	4G	4e	.
=26	=26	=26	=26
2D;	2F#;	2d;	2a;
4A	4A	4e	4cc#
=27	=27	=27	=27
2D#	2F#	2f#	4b
.	.	.	4a
4E	4B	4e	4g#
=28	=28	=28	=28
4AA	4c#	2e	4a
2BB	4B	.	2f#
.	4A	4d#	.
=29	=29	=29	=29
2E;	2G#;	2B;	2e;
4C#	4G#	4c#	4e
=30	=30	=30	=30
2F#	2A	4c#	2a
.	.	4d#	.
4E	4B	4e	4g#
=31	=31	=31	=31
2BB	4B	2d#	2f#
.	4A	.	.
4C#	4G#	4e	4e
=32	=32	=32	=32
2DnX	4dnX	4.f#	4b
.	2A	.	2cc#
.	.	8g#	.
4D#	.	4a	.
=33	=33	=33	=33
2E;	2G#;	2e;	2b;
4E#	4c#	4g#	4cc#
=34	=34	=34	=34
4F#	4f#	4a	2dd
4G#	4enX	4b	.
4A	4e	4a	4cc#
=35	=35	=35	=35
4E	8eL	4g#	4b
.	8dJ	.	.
4F#	4c#	2a	8aL
.	.	.	8g#
4D	4f#	.	8a
.	.	.	8bJ
=36	=36	=36	=36
2E	2e	4a	4cc#
.	.	2g#	2b
4E	4d	.	.
=37	=37	=37	=37
2AA;	2c#;	2e;	2a;
==	==	==	==
*-	*-	*-	*-
!!!hum2abc: -Q ''
!!!title: @{PC#}. @{OTL@@DE}
!!!YOR1: 371 vierstimmige Choralges&auml;nge von Johann Sebastian Bach, 
!!!YOR2: 4th ed. by Alfred D&ouml;rffel (Leipzig: Breitkopf und H&auml;rtel, 
!!!YOR2: c.1875). 178 pp. Plate "V.A.10".  reprint: J.S. Bach, 371 Four-Part 
!!!YOR4: Chorales (New York: Associated Music Publishers, Inc., c.1940).
!!!SMS: B&H, 4th ed, Alfred D&ouml;rffel, c.1875, plate V.A.10
!!!EED:  Craig Stuart Sapp
!!!EEV:  2009/05/22
